!!!OTL: JAENSKEN VON BREMEN
!!!ARE: Europa, Mitteleuropa, Deutschland, Westfalen
!!!SCT: E1164
!!!YEM: Copyright 1995, estate of Helmut Schaffrath.
**kern
*ICvox
*Ivox
*M3/4
*k[b-e-]
*g:
=1
{4dd
4dd
4cc
=2
4b-
4a
4g
=3
4f#
4g
4a
=4
2d}
{4dd
=5
4ee-
4dd
4cc
=6
4b-
4a
4dd
=7
2d
4f#
=8
4g
4r}
{4dd
=9
4dd
4dd
4cc
=10
4b-
4a
4g
=11
4f#
4g
4a
=12
2d}
{4dd
=13
4ee-
4dd
4cc
=14
4b-
4a
4dd
=15
2d
4f#
=16
4g
4r}
{4dd
=17
2d
4f#
=18
4g
4r
4dd
=19
2d
4f#
=20
4g
4r}
{4dd
=21
4ee-
4dd
4cc
=22
4b-
4a
4dd
=23
2d
4f#
=24
4g
4r}
{4dd
=25
2d
4f#
=26
4g
4r
4dd
=27
2d
4f#
=28
4g
2r}
==
!!!AGN: Trink -, Zech - Lied
!!!ONB: ESAC (Essen Associative Code) Database: ERK3
!!!AMT: simple triple
!!!AIN: vox
!!!EED: Helmut Schaffrath
!!!EEV: 1.0
*-
